icons/core-ui/SVG/external-link_solid_8px.svg

<?xml version="1.0" encoding="utf-8"?>
<!-- Generator: Adobe Illustrator 27.5.0, SVG Export Plug-In . SVG Version: 6.00 Build 0)  -->
<svg version="1.1" id="Layer_1" xmlns="http://www.w3.org/2000/svg" xmlns:xlink="http://www.w3.org/1999/xlink" x="0px" y="0px"
	 viewBox="0 0 8 8" style="enable-background:new 0 0 8 8;" xml:space="preserve">
<path fill="#0F1621" d="M6,5h1v2c0,0.5-0.4,1-1,1H1C0.4,8,0,7.6,0,7V2c0-0.5,0.4-1,1-1h2v1H1v5h5V5z M5,0v1h1.1L3.6,3.6l0.8,0.8L7,1.8
	V3h1V0H5z"/>
</svg>

<svg width="8" height="8" viewBox="0 0 8 8" fill="none" xmlns="http://www.w3.org/2000/svg">
<path d="M6 5H7V7C7 7.5 6.6 8 6 8H1C0.4 8 0 7.6 0 7V2C0 1.5 0.4 1 1 1H3V2H1V7H6V5ZM5 0V1H6.1L3.6 3.6L4.4 4.4L7 1.8V3H8V0H5Z" fill="#0F1621"/>
</svg>
